X: 20712
T: Johnny Boyle's
R: barndance
M: 4/4
K: Dmajor
|:F>A|d2 F>A d2 F>A|d>cB<G B2- B>d|c<eA>e c>eA>c|d>cd>f (3efg f>e|
d>AF>A d2 F>A|d>cB<G B2- B>f|g2 B>d c>Bc>d|1 (3efe d>c d>A:|2 (3ede d>c d2||
|:A>d|f2- f>e f>ae>d|c>Bc>d e2- e>f|g2 g>f g>af>e|d>cd>e f<dA>d|
f2- f>e f>ae>d|c>Bc>d e2- e>f|g2 B>d c>Bc>d|1 (3efe d>c d>F:|2 (3efe d>c d2||

